logo.svg

<?xml version="1.0" encoding="UTF-8" standalone="no"?>
<svg width="554px" height="296px" viewBox="0 0 554 296" version="1.1" xmlns="http://www.w3.org/2000/svg" xmlns:xlink="http://www.w3.org/1999/xlink" xmlns:sketch="http://www.bohemiancoding.com/sketch/ns">
    <!-- Generator: Sketch 3.0.4 (8054) - http://www.bohemiancoding.com/sketch -->
    <title>logo</title>
    <desc>Created with Sketch.</desc>
    <defs></defs>
    <g id="Page-1" stroke="none" stroke-width="1" fill="none" fill-rule="evenodd" sketch:type="MSPage">
        <path d="M80.6045207,290.018128 C98.6902427,286.279051 99.9341882,271.789041 99.6402173,258.498085 C99.0870309,233.501876 96.5527997,208.547663 94.7875266,183.580418 C94.5355516,180.023805 93.9707801,176.488915 92.3894198,173.009053 C94.0649087,199.276722 95.7403975,225.545838 97.4158864,251.814955 C96.4369491,251.923565 95.4580118,252.032175 94.4790745,252.140785 C91.4481339,230.444869 88.4171934,208.747506 85.2544729,186.107408 C80.9940682,192.076609 77.55041,197.538963 73.47247,202.478542 C65.011034,212.728421 55.3910924,221.388251 41.0820989,221.990674 C26.1011722,222.623508 14.58997,214.528449 7.91697718,198.780012 C-1.38582354,176.823433 -1.24825099,154.174647 3.22937352,131.27823 C6.61800267,113.952777 10.8436522,96.9792207 21.6510622,82.3342606 C32.6670032,67.4054666 46.2910301,58.0650145 65.646764,59.5768644 C74.0488266,60.2343164 82.50447,60.6340008 90.8080596,61.9575936 C94.4645931,62.5397427 97.8025377,65.1333473 101.283847,66.8146287 C98.66128,69.7355112 96.5383183,73.4861734 93.323465,75.4237742 C83.0011793,81.6463979 74.1863991,89.2737097 67.8653024,99.5713772 C55.8356689,119.170397 48.9787634,140.146591 51.6187082,163.46007 C52.3500149,169.924532 54.3064414,176.252869 61.6730895,177.74879 C68.9542978,179.227332 73.1379515,174.092256 76.8509622,168.796437 C80.9419354,162.960464 82.482748,156.737841 83.0533121,149.375537 C84.7056308,128.047447 87.8292518,106.830864 90.4648522,85.5795247 C91.2396029,79.3250421 95.537659,75.8582138 100.994221,73.8235882 C117.036628,67.83701 133.459895,67.2360352 150.087348,70.9244277 C154.647516,71.936672 156.155021,73.6251941 155.307864,79.4408926 C152.536139,98.48383 150.627501,117.701991 149.487821,136.918705 C147.718204,166.7705 146.852221,196.675876 145.608275,226.558083 C144.862487,244.497543 139.980834,261.226365 130.582456,276.527329 C119.236341,295.002599 94.7382901,298.288411 80.6045207,290.018128 Z M400.176868,75.016849 C403.05141,79.2019508 406.293778,83.1886586 408.697677,87.6286316 C411.056685,91.9831649 412.56419,96.7996523 414.973882,101.175908 C415.351845,88.8103074 410.042992,78.9934198 399.801802,70.8983613 C402.217286,69.1794285 403.608941,67.3779521 405.185957,67.1983837 C417.283653,65.8241064 429.414656,63.9531197 441.541314,63.9053313 C449.031053,63.8763687 454.40652,70.905602 454.42969,80.5921577 C454.468789,97.6453615 453.161126,114.698565 452.50657,131.754665 C452.12716,141.617893 451.643484,151.491258 451.770919,161.353038 C451.821604,165.35133 453.02645,169.446648 454.319632,173.291439 C456.03422,178.38452 458.343991,183.529733 464.773697,183.842529 C471.605985,184.1756 474.146008,178.60898 475.193008,173.630302 C478.89733,156.012326 482.429324,138.313256 484.852049,120.485301 C486.763584,106.421042 486.864953,92.1178412 487.926434,77.9333871 C488.717114,67.3605745 494.389447,61.7635439 504.881165,62.9669417 C513.887098,64.000908 522.752563,66.6524379 531.497833,69.2112874 C533.358683,69.7557851 535.464267,72.8837504 535.687279,75.0067121 C536.645943,84.0951893 537.254158,93.2459361 537.420693,102.38365 C537.928988,130.341288 538.13607,158.303271 538.576303,186.26091 C538.625539,189.365705 539.488626,192.448779 539.855003,195.55647 C540.561692,201.535808 542.29221,206.53476 552.460993,205.907719 C549.102775,209.872704 547.615543,213.254093 545.173993,214.218549 C536.33025,217.712892 527.302594,220.952363 518.079441,223.207105 C510.77651,224.992652 505.183824,221.146413 502.882742,214.10125 C498.56586,200.879804 494.797821,187.478789 490.803872,174.154526 C490.323092,175.602658 489.778595,177.753134 488.912612,179.764589 C484.542149,189.910203 481.196964,200.706028 475.43919,210.004484 C462.185885,231.409325 427.413337,230.56072 413.7198,209.238422 C406.778902,198.428116 404.583534,186.472337 405.197542,173.989439 C406.002704,157.625546 407.550757,141.299304 408.445702,124.938307 C409.311685,109.101535 408.355918,93.5485957 398.924234,79.8188551 C398.316018,78.9325983 398.2523,77.6741715 397.936608,76.5880724 C398.682396,76.0652967 399.429632,75.5410729 400.176868,75.016849 Z M372.223574,66.8377988 C369.11733,61.3102785 366.391946,56.0492146 363.278462,51.0270924 C358.991991,44.1108134 354.966183,36.9135968 349.794904,30.6982137 C345.095715,25.0533947 339.869406,25.9483404 335.821877,32.2071674 C334.310027,34.5473489 333.003812,37.5131235 332.948783,40.2211305 C332.663501,54.1492652 332.817003,68.0860887 332.817003,82.0822856 C343.586761,82.6586422 353.400753,82.8990321 363.156819,83.7881853 C372.494375,84.6396869 374.068494,88.355594 372.688424,97.6265358 C371.907881,102.87167 372.474101,107.754772 369.262144,112.875367 C366.788734,116.820079 364.519511,118.446331 360.401023,118.465157 C353.483296,118.497016 346.565569,118.473846 340.167721,118.473846 C339.152581,138.533372 338.84268,157.081048 337.130988,175.496944 C334.815425,200.407713 330.158232,224.742125 313.566982,244.981219 C305.00997,255.419356 295.182945,264.119733 282.553785,269.196885 C279.608284,270.381457 276.27758,270.608813 271.326417,271.655813 C272.499404,267.96018 272.678972,265.799567 273.75059,264.26165 C285.610792,247.257683 289.110927,227.684729 288.957425,207.814909 C288.714139,176.370168 286.760609,144.93846 285.439912,111.185397 C272.749931,113.754383 262.194496,115.891826 251.576791,118.042302 C256.543884,107.323228 266.498344,103.323488 276.171867,99.3816719 C281.40252,97.2500214 282.477034,94.4710559 282.183063,89.0897969 C281.250466,72.0192156 279.934114,54.8501612 280.831956,37.8288163 C282.346702,9.13552651 303.066576,-3.6341025 330.295805,5.84971473 C332.772111,6.71280148 336.049234,6.68963136 338.547261,5.85550726 C362.964217,-2.29458029 383.022295,12.615388 381.633536,38.8772639 C381.186063,47.3444924 378.018999,55.6799409 375.898933,64.0255263 C375.677369,64.9001981 374.120627,65.4360069 372.223574,66.8377988 Z M333.296334,23.6269846 C323.391111,24.7290131 315.571197,42.8234239 318.774466,56.8384466 C323.137688,46.8593682 328.31476,35.01944 333.296334,23.6269846 L333.296334,23.6269846 Z M217.857035,58.7354996 C218.536209,59.1279434 218.72881,59.2930305 218.951822,59.3596446 C242.317434,66.3309526 245.645242,72.0800371 242.446318,96.6389097 C239.059137,122.654603 235.548865,148.702156 233.686567,174.849629 C232.833617,186.824234 235.971719,199.058054 236.827565,211.206434 C236.949208,212.954329 234.784251,215.94617 233.036355,216.573212 C216.707218,222.430906 194.769464,212.273707 191.010113,195.497097 C187.189941,178.440997 185.640439,160.817229 183.940332,143.358548 C182.00418,123.452524 181.109234,103.448027 179.509048,83.5057995 C179.145567,78.984731 178.378057,74.282646 176.664916,70.1322994 C174.104619,63.9285014 176.863311,61.5984568 182.215607,60.7107518 C189.999317,59.4204661 197.833712,58.4299438 205.953389,57.2670937 C207.009077,50.4796984 203.36268,46.3394887 197.37031,43.5793489 C189.065272,39.7519357 180.428612,36.4979829 172.550773,31.9334704 C161.437807,25.4936269 161.146733,19.1768746 171.602247,11.6103843 C198.82713,-8.09000502 233.491069,0.22372146 253.072711,21.1883301 C261.387886,30.0914464 258.419215,40.3369811 246.948561,44.4583651 C241.321119,46.4799575 235.350471,47.8976789 229.416025,48.6130561 C223.013833,49.3863587 219.153113,52.1870462 217.857035,58.7354996 L217.857035,58.7354996 Z M223.477235,174.321061 C224.01594,174.389123 224.554646,174.457185 225.094799,174.525247 C226.942615,150.422536 228.79188,126.321274 230.641145,102.218563 C229.624556,102.157741 228.607967,102.09692 227.591379,102.03465 C226.219998,126.13012 224.848616,150.225591 223.477235,174.321061 Z M333.296334,23.6269846 C328.31476,35.01944 323.137688,46.8593682 318.774466,56.8384466 C315.571197,42.8234239 323.391111,24.7290131 333.296334,23.6269846 Z" id="logo" fill="#FF9000" sketch:type="MSShapeGroup"></path>
    </g>
</svg>

<svg width="554" height="296" viewBox="0 0 554 296" xmlns="http://www.w3.org/2000/svg"><title>logo</title><path d="M80.605 290.018c18.085-3.74 19.33-18.23 19.035-31.52-.553-24.996-3.087-49.95-4.852-74.918-.252-3.556-.817-7.09-2.4-10.57 1.677 26.267 3.352 52.536 5.028 78.805-.98.11-1.958.217-2.937.326l-9.226-66.033c-4.26 5.97-7.704 11.432-11.782 16.372-8.46 10.248-18.08 18.908-32.39 19.51-14.98.634-26.492-7.462-33.165-23.21-9.303-21.957-9.165-44.605-4.688-67.502 3.388-17.325 7.614-34.3 18.42-48.944 11.017-14.93 24.64-24.27 43.997-22.757 8.402.657 16.857 1.057 25.16 2.38 3.658.583 6.996 3.176 10.477 4.858-2.623 2.92-4.746 6.67-7.96 8.61C83 81.644 74.185 89.274 67.863 99.57c-12.028 19.6-18.885 40.577-16.245 63.89.73 6.465 2.686 12.793 10.053 14.29 7.28 1.477 11.465-3.658 15.178-8.954 4.092-5.836 5.633-12.058 6.203-19.42 1.653-21.33 4.776-42.545 7.412-63.796.775-6.255 5.073-9.722 10.53-11.756 16.042-5.987 32.465-6.588 49.092-2.9 4.56 1.013 6.068 2.7 5.22 8.517-2.77 19.044-4.68 38.262-5.82 57.48-1.77 29.85-2.635 59.756-3.88 89.638-.745 17.94-5.626 34.668-15.025 49.97-11.346 18.475-35.844 21.76-49.977 13.49zm319.572-215c2.874 4.184 6.117 8.17 8.52 12.61 2.36 4.355 3.867 9.172 6.277 13.548.378-12.366-4.93-22.183-15.172-30.278 2.415-1.72 3.807-3.52 5.384-3.7 12.098-1.374 24.23-3.245 36.355-3.293 7.49-.03 12.867 7 12.89 16.687.04 17.053-1.27 34.107-1.923 51.163-.38 9.863-.864 19.736-.736 29.598.052 3.998 1.256 8.094 2.55 11.938 1.714 5.095 4.024 10.24 10.454 10.553 6.832.333 9.372-5.234 10.42-10.213 3.703-17.618 7.235-35.317 9.658-53.145 1.912-14.064 2.013-28.367 3.074-42.552.79-10.572 6.463-16.17 16.955-14.966 9.007 1.034 17.873 3.685 26.618 6.244 1.86.546 3.966 3.674 4.19 5.797.958 9.088 1.566 18.24 1.733 27.377.51 27.957.716 55.92 1.156 83.877.05 3.106.913 6.19 1.28 9.296.706 5.98 2.436 10.98 12.605 10.352-3.357 3.965-4.844 7.346-7.286 8.31-8.844 3.495-17.87 6.734-27.095 8.99-7.303 1.785-12.896-2.062-15.197-9.107-4.317-13.22-8.085-26.62-12.08-39.945-.48 1.448-1.024 3.598-1.89 5.61-4.37 10.145-7.716 20.94-13.474 30.24-13.254 21.404-48.027 20.556-61.72-.767-6.94-10.81-9.136-22.766-8.522-35.25.805-16.362 2.353-32.69 3.248-49.05.866-15.836-.09-31.39-9.522-45.12-.608-.885-.672-2.144-.987-3.23l2.24-1.57zm-27.953-8.18c-3.107-5.528-5.832-10.79-8.946-15.81-4.286-6.917-8.312-14.114-13.483-20.33-4.7-5.645-9.926-4.75-13.973 1.51-1.512 2.34-2.818 5.305-2.873 8.013-.286 13.93-.133 27.866-.133 41.862 10.77.577 20.584.817 30.34 1.706 9.337.852 10.91 4.568 9.53 13.84-.78 5.244-.213 10.127-3.425 15.247-2.473 3.945-4.742 5.57-8.86 5.59-6.92.032-13.836.01-20.234.01-1.015 20.058-1.325 38.606-3.037 57.022-2.315 24.91-6.972 49.245-23.563 69.484-8.557 10.44-18.384 19.14-31.013 24.217-2.946 1.184-6.276 1.412-11.228 2.46 1.173-3.697 1.353-5.857 2.425-7.395 11.86-17.004 15.36-36.577 15.207-56.447-.243-31.445-2.196-62.877-3.517-96.63l-33.863 6.857c4.967-10.72 14.92-14.72 24.595-18.66 5.23-2.132 6.305-4.91 6.01-10.292-.932-17.07-2.248-34.24-1.35-51.26 1.515-28.694 22.235-41.464 49.464-31.98 2.476.863 5.753.84 8.25.006 24.418-8.15 44.476 6.76 43.088 33.02-.448 8.468-3.615 16.804-5.735 25.15-.223.874-1.78 1.41-3.676 2.812zm-38.928-43.21c-9.905 1.1-17.725 19.195-14.522 33.21 4.364-9.98 9.54-21.82 14.522-33.21zm-115.44 35.107c.68.393.873.558 1.096.625 23.365 6.97 26.693 12.72 23.494 37.28-3.387 26.015-6.897 52.062-8.76 78.21-.852 11.974 2.286 24.208 3.142 36.356.12 1.748-2.044 4.74-3.792 5.367-16.33 5.858-38.267-4.3-42.026-21.076-3.82-17.056-5.37-34.68-7.07-52.138-1.936-19.907-2.83-39.912-4.43-59.854-.364-4.52-1.132-9.223-2.845-13.374-2.56-6.203.198-8.534 5.55-9.42 7.784-1.292 15.62-2.282 23.738-3.445 1.056-6.787-2.59-10.928-8.583-13.688-8.305-3.828-16.94-7.082-24.82-11.647-11.112-6.44-11.403-12.756-.948-20.323 27.225-19.7 61.89-11.386 81.47 9.578 8.316 8.903 5.347 19.15-6.123 23.27-5.63 2.022-11.6 3.44-17.534 4.155-6.402.773-10.263 3.574-11.56 10.122zm5.62 115.586c.54.07 1.08.137 1.62.205 1.847-24.102 3.696-48.204 5.545-72.306l-3.05-.185c-1.37 24.095-2.74 48.19-4.113 72.286zm109.82-150.693c-4.98 11.392-10.158 23.232-14.522 33.21-3.203-14.014 4.617-32.108 14.522-33.21z" fill="#FF9000"/></svg>
